storage/app/icons/phosphoricons/regular/browsers.svg

<svg xmlns="http://www.w3.org/2000/svg" fill="currentColor" viewBox="0 0 256 256"><path d="M216 40H72a16 16 0 0 0-16 16v16H40a16 16 0 0 0-16 16v112a16 16 0 0 0 16 16h144a16 16 0 0 0 16-16v-16h16a16 16 0 0 0 16-16V56a16 16 0 0 0-16-16m-32 48v16H40V88Zm0 112H40v-80h144zm32-32h-16V88a16 16 0 0 0-16-16H72V56h144Z"/></svg>

<svg xmlns="http://www.w3.org/2000/svg" viewBox="0 0 256 256" fill="currentColor"><path d="M216,40H72A16,16,0,0,0,56,56V72H40A16,16,0,0,0,24,88V200a16,16,0,0,0,16,16H184a16,16,0,0,0,16-16V184h16a16,16,0,0,0,16-16V56A16,16,0,0,0,216,40ZM184,88v16H40V88Zm0,112H40V120H184v80Zm32-32H200V88a16,16,0,0,0-16-16H72V56H216Z"/></svg>
